static/logos/dato.svg

<svg width="262" height="81" viewBox="0 0 262 81" fill="none" xmlns="http://www.w3.org/2000/svg">
<path d="M39.344 0.844238H0V80.0372H39.344C59.021 80.0372 78.687 62.3082 78.687 40.4462C78.687 18.5842 59.021 0.844238 39.344 0.844238ZM39.344 58.4332C35.7854 58.4319 32.3071 57.3753 29.3489 55.397C26.3908 53.4188 24.0857 50.6079 22.7251 47.3196C21.3645 44.0314 21.0095 40.4135 21.705 36.9235C22.4006 33.4335 24.1154 30.2281 26.6326 27.7127C29.1499 25.1972 32.3565 23.4847 35.847 22.7917C39.3375 22.0987 42.9551 22.4563 46.2424 23.8193C49.5297 25.1822 52.339 27.4894 54.315 30.449C56.2911 33.4085 57.3452 36.8876 57.344 40.4462C57.3441 42.8095 56.8785 45.1495 55.9738 47.3327C55.0691 49.5159 53.7431 51.4994 52.0714 53.1699C50.3998 54.8403 48.4153 56.1649 46.2315 57.0681C44.0476 57.9712 41.7072 58.4351 39.344 58.4332Z" fill="#37322e"/>
<path d="M119.054 0.858C130.896 0.858 136.97 8.037 136.97 17.916V26.751C136.97 36.629 130.896 43.808 119.054 43.808H100.279V0.858H119.054ZM126.417 17.858C126.417 12.398 123.533 9.514 117.152 9.514H110.771V35.156H117.152C123.533 35.156 126.417 32.272 126.417 26.812V17.858ZM169.658 35.835H154.135L151.742 43.812H141.189L156.527 0.858H167.327L182.666 43.808H172.112L169.658 35.835ZM156.712 27.368H167.081L161.927 10.373L156.712 27.368ZM216.033 0.858V9.758H204.433V43.808H193.883V9.755H182.283V0.858H216.033ZM241.578 44.667C228.571 44.667 221.883 36.322 221.883 25.094V19.572C221.883 8.344 228.571 0 241.578 0C254.585 0 261.278 8.344 261.278 19.572V25.094C261.274 36.322 254.586 44.667 241.578 44.667V44.667ZM241.578 8.773C235.443 8.773 232.436 12.885 232.436 19.02V25.646C232.436 31.782 235.443 35.893 241.578 35.893C247.713 35.893 250.72 31.782 250.72 25.646V19.02C250.72 12.885 247.714 8.773 241.578 8.773V8.773ZM109.69 75.244C110.359 75.298 111.031 75.2117 111.664 74.9906C112.297 74.7696 112.877 74.4186 113.367 73.9603C113.856 73.5019 114.245 72.9463 114.507 72.3291C114.77 71.7118 114.9 71.0466 114.89 70.376H120.844C120.769 75.918 116.688 80.562 109.76 80.562C101.672 80.562 97.7781 75.469 97.7781 68.654V65.209C97.7781 58.394 101.672 53.302 109.76 53.302C116.688 53.302 120.769 57.944 120.844 63.486H114.89C114.9 62.8154 114.77 62.1502 114.507 61.5329C114.245 60.9157 113.856 60.3601 113.367 59.9018C112.877 59.4434 112.297 59.0925 111.664 58.8714C111.031 58.6503 110.359 58.564 109.69 58.618C105.795 58.618 104.222 61.202 104.222 64.909V68.953C104.222 72.66 105.8 75.244 109.69 75.244ZM146.745 53.825H152.662V80.037H146.484V66.183L142.364 74.195H137.272L133.191 66.183V80.037H127.012V53.825H132.928L139.818 68.092L146.745 53.825ZM169.51 80.562C163.219 80.562 158.988 77.562 158.988 72.286V71.574H165.166V72.1C165.166 74.309 166.589 75.657 169.547 75.657C172.206 75.657 173.966 74.571 173.966 72.549C174.016 72.006 173.858 71.4643 173.524 71.0334C173.19 70.6026 172.704 70.3147 172.166 70.228L165.613 68.58C161.531 67.569 159.434 65.772 159.434 61.503C159.434 56.298 163.141 53.303 169.357 53.303C175.236 53.303 178.981 56.485 178.981 61.278V61.915H173.03V61.466C173.03 59.705 172.056 58.245 169.36 58.245C167.113 58.245 165.691 59.031 165.691 60.903C165.65 61.4061 165.8 61.9061 166.113 62.3024C166.426 62.6986 166.877 62.9615 167.376 63.038L174.34 64.91C178.534 66.033 180.219 68.355 180.219 71.987C180.219 77.229 175.576 80.562 169.51 80.562Z" fill="#37322e"/>
</svg>

<svg fill="none" xmlns="http://www.w3.org/2000/svg" viewBox="0 0 262 81"><path d="M39.3.8H0V80h39.3a40.9 40.9 0 0039.4-39.6A40.9 40.9 0 0039.3.8zm0 57.6a18 18 0 110-36 18 18 0 010 36zM119 .9c11.9 0 18 7.1 18 17v8.9c0 9.8-6.1 17-18 17h-18.7V.8H119zm7.4 17c0-5.5-2.9-8.4-9.2-8.4h-6.4v25.7h6.4c6.3 0 9.2-3 9.2-8.4v-9zm43.3 18H154l-2.4 8h-10.5l15.3-43h10.8l15.4 43H172l-2.4-8zm-13-8.5h10.4l-5.2-17-5.2 17zM216 .9v8.9h-11.6v34H194v-34h-11.6v-9H216zm25.6 43.8c-13 0-19.7-8.4-19.7-19.6v-5.5c0-11.3 6.7-19.6 19.7-19.6s19.7 8.3 19.7 19.6V25c0 11.2-6.7 19.6-19.7 19.6zm0-36c-6.2 0-9.2 4.2-9.2 10.3v6.6c0 6.2 3 10.3 9.2 10.3 6.1 0 9.1-4.1 9.1-10.3V19c0-6.1-3-10.2-9.1-10.2zm-132 66.5a4.8 4.8 0 005.3-4.8h6c-.1 5.5-4.2 10.2-11.1 10.2-8.1 0-12-5.1-12-12v-3.4c0-6.8 3.9-11.9 12-11.9 6.9 0 11 4.6 11 10.2h-6a4.8 4.8 0 00-5.1-4.9c-4 0-5.5 2.6-5.5 6.3v4c0 3.8 1.6 6.3 5.5 6.3zm37.1-21.4h6V80h-6.2V66.2l-4.1 8h-5.1l-4.1-8V80H127V53.8h6l6.8 14.3 7-14.3zm22.8 26.8c-6.3 0-10.5-3-10.5-8.3v-.7h6.2v.5c0 2.2 1.4 3.6 4.3 3.6 2.7 0 4.5-1.1 4.5-3.2a2.2 2.2 0 00-1.8-2.3l-6.6-1.6c-4-1-6.2-2.8-6.2-7.1 0-5.2 3.7-8.2 10-8.2 5.8 0 9.6 3.2 9.6 8v.6h-6v-.4c0-1.8-1-3.3-3.6-3.3-2.3 0-3.7.8-3.7 2.7a2 2 0 001.7 2.1l7 2c4.1 1 5.8 3.4 5.8 7 0 5.2-4.6 8.6-10.7 8.6z" fill="#37322e"/></svg>
